X: 30252
T: TYLER'S MARCH
C: E. L. White
%R: march, reel
B: Elias Howe "The Musician's Companion" Part 3 1844 p.25 #2
S: http://imslp.org/wiki/The_Musician's_Companion_(Howe,_Elias)
S: https://archive.org/stream/firstthirdpartof03howe/#page/66/mode/1up
Z: 2016 John Chambers <jc:trillian.mit.edu>
M: C
L: 1/16
K: Am
% - - - - - - - - - - - - - - - - - - - - - - - - -
|:\
E4A3B c3A^G3A | B4e3f e4c3B | A3fe3d c2de d3c | B4B3B B4z4 |\
E4A3B c3de3f | g4g3f e4d4 | c3Bd3c B4e4 | A4A3A A4z4 :|
|:\
G4e3e e3de3f | d4d3d d4e3d | c2A^G ABcd e4d3c | (Tc8 B2)E2^F2^G2 |\
A4A,3B, C3EA3B | c4{dcB}c3d e4d4 | c3Bd3c B4e4 | A4A3A A4z4 :|
% - - - - - - - - - - - - - - - - - - - - - - - - -
